battery-plus-outline.svg

<svg fill="currentColor" viewBox="0 0 24 24"><path d="M13.54 22H7.33C6.6 22 6 21.4 6 20.67V5.33C6 4.6 6.6 4 7.33 4H9V2h6v2h1.67C17.4 4 18 4.6 18 5.33V12c-.7 0-1.37.13-2 .35V6H8v14h4.35c.26.75.65 1.42 1.19 2M22 17v2h-3v3h-2v-3h-3v-2h3v-3h2v3z"/></svg>

<svg  viewBox="0 0 24 24" fill="currentColor"><path  d="M13.54 22H7.33C6.6 22 6 21.4 6 20.67V5.33C6 4.6 6.6 4 7.33 4H9V2H15V4H16.67C17.4 4 18 4.6 18 5.33V12C17.3 12 16.63 12.13 16 12.35V6H8V20H12.35C12.61 20.75 13 21.42 13.54 22M22 17V19H19V22H17V19H14V17H17V14H19V17H22Z"/></svg>
